;FLAVOR:Marlin
;TIME:1739
;Filament used: 1.36082m
;Layer height: 0.2
;MINX:151
;MINY:155
;MINZ:0.2
;MAXX:193
;MAXY:197
;MAXZ:20
;Generated with Cura_SteamEngine 4.13.1
M140 S60
M105
M190 S60
M104 S200
M105
M109 S200
M82 ;absolute extrusion mode
M201 X500.00 Y500.00 Z100.00 E5000.00 ;Setup machine max acceleration
M203 X500.00 Y500.00 Z10.00 E50.00 ;Setup machine max feedrate
M204 P500.00 R1000.00 T500.00 ;Setup Print/Retract/Travel acceleration
M205 X8.00 Y8.00 Z0.40 E5.00 ;Setup Jerk
M220 S100 ;Reset Feedrate
M221 S100 ;Reset Flowrate

G28 ;Home
M420 S1 Z2 ;Enable ABL using saved Mesh and Fade Height

G92 E0 ;Reset Extruder
G1 Z2.0 F3000 ;Move Z Axis up
G1 X10.1 Y20 Z0.28 F5000.0 ;Move to start position
G1 X10.1 Y200.0 Z0.28 F1500.0 E15 ;Draw the first line
G1 X10.4 Y200.0 Z0.28 F5000.0 ;Move to side a little
G1 X10.4 Y20 Z0.28 F1500.0 E30 ;Draw the second line
G92 E0 ;Reset Extruder
G1 Z2.0 F3000 ;Move Z Axis up

G92 E0
G92 E0
G1 F1500 E-6.5
;LAYER_COUNT:100
;LAYER:0
M107
G0 F6000 X154.198 Y158.264 Z0.2
;TYPE:SKIRT
G1 F1500 E0
G1 F1200 X154.886 Y157.627 E0.03119
G1 X155.626 Y157.051 E0.06237
G1 X156.412 Y156.539 E0.09357
G1 X157.239 Y156.097 E0.12476
G1 X158.101 Y155.727 E0.15596
G1 X158.991 Y155.431 E0.18716
G1 X159.903 Y155.213 E0.21835
G1 X160.83 Y155.072 E0.24953
G1 X161.701 Y155.013 E0.27857
G1 X162.022 Y155.004 E0.28925
G1 X162.33 Y155 E0.29949
G1 X181.293 Y155 E0.93021
G1 X182.149 Y155.011 E0.95868
G1 X183.085 Y155.065 E0.98986
G1 X184.013 Y155.197 E1.02104
G1 X184.927 Y155.409 E1.05225
G1 X185.819 Y155.698 E1.08343
G1 X186.684 Y156.061 E1.11463
G1 X187.514 Y156.497 E1.14582
G1 X188.305 Y157.002 E1.17703
G1 X189.049 Y157.573 E1.20822
G1 X189.742 Y158.205 E1.23942
G1 X190.379 Y158.893 E1.2706
G1 X190.954 Y159.634 E1.3018
G1 X191.465 Y160.42 E1.33298
G1 X191.907 Y161.248 E1.3642
G1 X192.276 Y162.11 E1.39538
G1 X192.571 Y163 E1.42657
G1 X192.789 Y163.912 E1.45776
G1 X192.929 Y164.84 E1.48897
G1 X192.987 Y165.701 E1.51767
G1 X192.996 Y166.021 E1.52832
G1 X193 Y166.33 E1.5386
G1 X192.999 Y185.4 E2.17287
G1 X192.99 Y186.127 E2.19705
G1 X192.939 Y187.064 E2.22826
G1 X192.807 Y187.992 E2.25944
G1 X192.598 Y188.906 E2.29062
G1 X192.311 Y189.799 E2.32182
G1 X191.949 Y190.665 E2.35304
G1 X191.515 Y191.496 E2.38422
G1 X191.011 Y192.287 E2.41542
G1 X190.442 Y193.032 E2.4466
G1 X189.811 Y193.727 E2.47782
G1 X189.124 Y194.365 E2.509
G1 X188.385 Y194.942 E2.54018
G1 X187.599 Y195.454 E2.57138
G1 X186.773 Y195.897 E2.60256
G1 X185.911 Y196.269 E2.63378
G1 X185.022 Y196.565 E2.66495
G1 X184.11 Y196.785 E2.69615
G1 X183.183 Y196.926 E2.72734
G1 X182.299 Y196.987 E2.75681
G1 X181.978 Y196.996 E2.76749
G1 X181.67 Y197 E2.77774
G1 X162.565 Y196.999 E3.41317
G1 X161.867 Y196.99 E3.43639
G1 X160.931 Y196.938 E3.46757
G1 X160.002 Y196.806 E3.49878
G1 X159.088 Y196.596 E3.52997
G1 X158.195 Y196.309 E3.56117
G1 X157.33 Y195.946 E3.59237
G1 X156.499 Y195.512 E3.62355
G1 X155.708 Y195.008 E3.65474
G1 X154.963 Y194.438 E3.68594
G1 X154.269 Y193.807 E3.71714
G1 X153.632 Y193.12 E3.7483
G1 X153.055 Y192.38 E3.77951
G1 X152.543 Y191.594 E3.81071
G1 X152.1 Y190.767 E3.84192
G1 X151.729 Y189.906 E3.8731
G1 X151.433 Y189.016 E3.90429
G1 X151.214 Y188.104 E3.93549
G1 X151.073 Y187.177 E3.96668
G1 X151.013 Y186.288 E3.99631
G1 X151.004 Y185.955 E4.00739
G1 X151 Y185.658 E4.01727
G1 X151.001 Y166.525 E4.65364
G1 X151.01 Y165.86 E4.67576
G1 X151.063 Y164.924 E4.70694
G1 X151.195 Y163.995 E4.73815
G1 X151.406 Y163.081 E4.76935
G1 X151.694 Y162.189 E4.80052
G1 X152.057 Y161.324 E4.83172
G1 X152.492 Y160.493 E4.86292
G1 X152.996 Y159.703 E4.89409
G1 X153.566 Y158.958 E4.92529
G1 X154.198 Y158.264 E4.95651
G0 F6000 X154.589 Y158.439
G1 F1200 X155.274 Y157.823 E4.98715
G1 X156.01 Y157.27 E5.01777
G1 X156.791 Y156.782 E5.0484
G1 X157.611 Y156.364 E5.07901
G1 X158.465 Y156.019 E5.10964
G1 X159.345 Y155.749 E5.14026
G1 X160.245 Y155.557 E5.17087
G1 X161.159 Y155.443 E5.2015
G1 X161.712 Y155.413 E5.21992
G1 X162.033 Y155.404 E5.2306
G1 X162.33 Y155.4 E5.24048
G1 X181.293 Y155.4 E5.87119
G1 X182.143 Y155.411 E5.89947
G1 X183.062 Y155.464 E5.93008
G1 X183.973 Y155.597 E5.9607
G1 X184.869 Y155.808 E5.99132
G1 X185.743 Y156.096 E6.02193
G1 X186.59 Y156.459 E6.05258
G1 X187.401 Y156.894 E6.08319
G1 X188.171 Y157.398 E6.1138
G1 X188.895 Y157.967 E6.14442
G1 X189.567 Y158.597 E6.17506
G1 X190.182 Y159.282 E6.20568
G1 X190.735 Y160.018 E6.2363
G1 X191.222 Y160.799 E6.26691
G1 X191.639 Y161.62 E6.29754
G1 X191.984 Y162.474 E6.32817
G1 X192.253 Y163.354 E6.35878
G1 X192.445 Y164.255 E6.38942
G1 X192.558 Y165.168 E6.42001
G1 X192.587 Y165.712 E6.43813
G1 X192.596 Y166.032 E6.44878
G1 X192.6 Y166.33 E6.45869
G1 X192.599 Y185.395 E7.0928
G1 X192.59 Y186.122 E7.11698
G1 X192.539 Y187.041 E7.14759
G1 X192.408 Y187.953 E7.17824
G1 X192.198 Y188.849 E7.20885
G1 X191.912 Y189.724 E7.23946
G1 X191.551 Y190.571 E7.27009
G1 X191.117 Y191.383 E7.30071
G1 X190.615 Y192.155 E7.33134
G1 X190.047 Y192.88 E7.36197
G1 X189.419 Y193.553 E7.39259
G1 X188.735 Y194.169 E7.4232
G1 X188 Y194.723 E7.45382
G1 X187.22 Y195.212 E7.48444
G1 X186.4 Y195.631 E7.51506
G1 X185.547 Y195.977 E7.54568
G1 X184.667 Y196.248 E7.5763
G1 X183.767 Y196.441 E7.60692
G1 X182.853 Y196.556 E7.63756
G1 X182.288 Y196.587 E7.65638
G1 X181.967 Y196.596 E7.66706
G1 X181.67 Y196.6 E7.67694
G1 X162.57 Y196.599 E8.31221
G1 X161.872 Y196.59 E8.33542
G1 X160.953 Y196.538 E8.36604
G1 X160.042 Y196.407 E8.39665
G1 X159.146 Y196.197 E8.42726
G1 X158.271 Y195.91 E8.45789
G1 X157.424 Y195.548 E8.48852
G1 X156.612 Y195.114 E8.51915
G1 X155.841 Y194.612 E8.54975
G1 X155.116 Y194.044 E8.58038
G1 X154.443 Y193.415 E8.61102
G1 X153.828 Y192.731 E8.64161
G1 X153.274 Y191.996 E8.67222
G1 X152.786 Y191.215 E8.70285
G1 X152.367 Y190.395 E8.73348
G1 X152.021 Y189.542 E8.7641
G1 X151.751 Y188.662 E8.79471
G1 X151.558 Y187.761 E8.82536
G1 X151.444 Y186.848 E8.85596
G1 X151.413 Y186.277 E8.87498
G1 X151.404 Y185.944 E8.88606
G1 X151.4 Y185.658 E8.89558
G1 X151.401 Y166.531 E9.53174
G1 X151.41 Y165.866 E9.55386
G1 X151.462 Y164.946 E9.58451
G1 X151.594 Y164.035 E9.61513
G1 X151.805 Y163.139 E9.64574
G1 X152.092 Y162.264 E9.67637
G1 X152.455 Y161.418 E9.70699
G1 X152.889 Y160.606 E9.73761
G1 X153.392 Y159.835 E9.76823
G1 X153.961 Y159.111 E9.79886
G1 X154.589 Y158.439 E9.82945
G0 F6000 X154.981 Y158.617
G1 F1200 X155.662 Y158.024 E9.85948
G1 X156.394 Y157.494 E9.88954
G1 X157.169 Y157.031 E9.91957
G1 X157.982 Y156.638 E9.9496
G1 X158.827 Y156.318 E9.97966
G1 X159.696 Y156.075 E10.00967
G1 X160.584 Y155.909 E10.03971
G1 X161.723 Y155.813 E10.07773
G1 X162.044 Y155.804 E10.08841
G1 X162.33 Y155.8 E10.09793
G1 X181.293 Y155.8 E10.72864
G1 X182.137 Y155.811 E10.75671
G1 X183.039 Y155.864 E10.78676
G1 X183.932 Y155.996 E10.81679
G1 X184.81 Y156.207 E10.84682
G1 X185.666 Y156.495 E10.87686
G1 X186.493 Y156.857 E10.90689
G1 X187.285 Y157.292 E10.93694
G1 X188.036 Y157.794 E10.96698
G1 X188.739 Y158.361 E10.99702
G1 X189.389 Y158.988 E11.02706
G1 X189.981 Y159.67 E11.0571
G1 X190.511 Y160.401 E11.08713
G1 X190.973 Y161.177 E11.11717
G1 X191.366 Y161.99 E11.1472
G1 X191.684 Y162.835 E11.17723
G1 X191.927 Y163.705 E11.20728
G1 X192.092 Y164.593 E11.23732
G1 X192.187 Y165.723 E11.27503
G1 X192.196 Y166.043 E11.28568
G1 X192.2 Y166.33 E11.29523
G1 X192.199 Y185.39 E11.92916
G1 X192.19 Y186.117 E11.95335
G1 X192.139 Y187.019 E11.9834
G1 X192.008 Y187.913 E12.01345
G1 X191.799 Y188.791 E12.04347
G1 X191.513 Y189.648 E12.07351
G1 X191.152 Y190.476 E12.10356
G1 X190.72 Y191.268 E12.13356
G1 X190.219 Y192.02 E12.16362
G1 X189.653 Y192.724 E12.19366
G1 X189.028 Y193.375 E12.22368
G1 X188.347 Y193.969 E12.25373
G1 X187.616 Y194.5 E12.28378
G1 X186.842 Y194.964 E12.3138
G1 X186.029 Y195.358 E12.34385
G1 X185.185 Y195.678 E12.37387
G1 X184.315 Y195.923 E12.40393
G1 X183.428 Y196.089 E12.43394
G1 X182.277 Y196.187 E12.47237
G1 X181.956 Y196.196 E12.48305
G1 X181.67 Y196.2 E12.49256
G1 X162.575 Y196.199 E13.12766
G1 X161.877 Y196.19 E13.15088
G1 X160.976 Y196.139 E13.1809
G1 X160.082 Y196.007 E13.21095
G1 X159.204 Y195.798 E13.24097
G1 X158.347 Y195.511 E13.27103
G1 X157.52 Y195.15 E13.30104
G1 X156.727 Y194.717 E13.33109
G1 X155.976 Y194.216 E13.36112
G1 X155.272 Y193.65 E13.39116
G1 X154.621 Y193.024 E13.4212
G1 X154.028 Y192.343 E13.45124
G1 X153.498 Y191.612 E13.48127
G1 X153.034 Y190.837 E13.51131
G1 X152.64 Y190.024 E13.54136
G1 X152.32 Y189.18 E13.57138
G1 X152.076 Y188.31 E13.60143
G1 X151.91 Y187.422 E13.63148
G1 X151.813 Y186.267 E13.67003
G1 X151.804 Y185.934 E13.68111
G1 X151.8 Y185.658 E13.69029
G1 X151.801 Y166.536 E14.32629
G1 X151.81 Y165.871 E14.34841
G1 X151.862 Y164.969 E14.37846
G1 X151.994 Y164.076 E14.40849
G1 X152.204 Y163.198 E14.43851
G1 X152.491 Y162.341 E14.46857
G1 X152.853 Y161.514 E14.4986
G1 X153.286 Y160.722 E14.52862
G1 X153.788 Y159.971 E14.55867
G1 X154.355 Y159.267 E14.58873
G1 X154.981 Y158.617 E14.61875
G1 F1500 E8.11875
;MESH:xyzCalibration_cube.stl
G0 F6000 X162.414 Y165.335
G0 X162.414 Y166.414
G0 X181.218 Y166.782
G0 X181.4 Y185.4
;TYPE:WALL-INNER
G1 F1500 E14.61875
G1 F1200 X162.6 Y185.4 E15.24404
G1 X162.6 Y166.6 E15.86933
G1 X181.4 Y166.6 E16.49462
G1 X181.4 Y185.4 E17.11991
G0 F6000 X181.8 Y185.8
;TYPE:WALL-OUTER
G1 F1200 X162.2 Y185.8 E17.77181
G1 X162.2 Y166.2 E18.42371
G1 X181.8 Y166.2 E19.0756
G1 X181.8 Y185.8 E19.7275
G0 F6000 X181.53 Y185.53
G0 X181.29 Y185.01
G0 X181.01 Y185.01
;TYPE:SKIN
G1 F1200 X162.99 Y185.01 E20.32685
G1 X162.99 Y166.99 E20.9262
G1 X181.01 Y166.99 E21.52555
G1 X181.01 Y185.01 E22.12489
G0 F6000 X181.29 Y185.01
G0 X181.29 Y167.273
G0 X180.849 Y167.273
G1 F1200 X180.726 Y167.15 E22.13068
G0 F6000 X180.16 Y167.15
G1 F1200 X180.849 Y167.838 E22.16306
G0 F6000 X180.849 Y168.404
G1 F1200 X179.595 Y167.15 E22.22205
G0 F6000 X179.029 Y167.15
G1 F1200 X180.849 Y168.97 E22.30765
G0 F6000 X180.849 Y169.535
G1 F1200 X178.463 Y167.15 E22.41986
G0 F6000 X177.898 Y167.15
G1 F1200 X180.849 Y170.101 E22.55867
G0 F6000 X180.849 Y170.667
G1 F1200 X177.332 Y167.15 E22.7241
G0 F6000 X176.766 Y167.15
G1 F1200 X180.849 Y171.232 E22.91612
G0 F6000 X180.849 Y171.798
G1 F1200 X176.201 Y167.15 E23.13475
G0 F6000 X175.635 Y167.15
G1 F1200 X180.849 Y172.364 E23.38
G0 F6000 X180.849 Y172.93
G1 F1200 X175.069 Y167.15 E23.65188
G0 F6000 X174.504 Y167.15
G1 F1200 X180.849 Y173.495 E23.95033
G0 F6000 X180.849 Y174.061
G1 F1200 X173.938 Y167.15 E24.2754
G0 F6000 X173.372 Y167.15
G1 F1200 X180.849 Y174.627 E24.62709
G0 F6000 X180.849 Y175.192
G1 F1200 X172.806 Y167.15 E25.00539
G0 F6000 X172.241 Y167.15
G1 F1200 X180.849 Y175.758 E25.41028
G0 F6000 X180.849 Y176.324
G1 F1200 X171.675 Y167.15 E25.8418
G0 F6000 X171.109 Y167.15
G1 F1200 X180.849 Y176.889 E26.29991
G0 F6000 X180.849 Y177.455
G1 F1200 X170.544 Y167.15 E26.78463
G0 F6000 X169.978 Y167.15
G1 F1200 X180.849 Y178.021 E27.29597
G0 F6000 X180.849 Y178.586
G1 F1200 X169.412 Y167.15 E27.83391
G0 F6000 X168.847 Y167.15
G1 F1200 X180.849 Y179.152 E28.39844
G0 F6000 X180.849 Y179.718
G1 F1200 X168.281 Y167.15 E28.9896
G0 F6000 X167.715 Y167.15
G1 F1200 X180.849 Y180.283 E29.60736
G0 F6000 X180.849 Y180.849
G1 F1200 X167.15 Y167.15 E30.25172
G0 F6000 X166.584 Y167.15
G1 F1200 X180.849 Y181.415 E30.9227
G0 F6000 X180.849 Y181.981
G1 F1200 X166.018 Y167.15 E31.62031
G0 F6000 X165.453 Y167.15
G1 F1200 X180.849 Y182.546 E32.34449
G0 F6000 X180.849 Y183.112
G1 F1200 X164.887 Y167.15 E33.09529
G0 F6000 X164.321 Y167.15
G1 F1200 X180.849 Y183.678 E33.87272
G0 F6000 X180.849 Y184.243
G1 F1200 X163.756 Y167.15 E34.67672
G0 F6000 X163.19 Y167.15
G1 F1200 X180.849 Y184.809 E35.50735
G0 F6000 X180.323 Y184.849
G1 F1200 X163.15 Y167.675 E36.31514
G0 F6000 X163.15 Y168.241
G1 F1200 X179.757 Y184.849 E37.0963
G0 F6000 X179.192 Y184.849
G1 F1200 X163.15 Y168.806 E37.85089
G0 F6000 X163.15 Y169.372
G1 F1200 X178.626 Y184.849 E38.57886
G0 F6000 X178.06 Y184.849
G1 F1200 X163.15 Y169.938 E39.2802
G0 F6000 X163.15 Y170.503
G1 F1200 X177.495 Y184.849 E39.95497
G0 F6000 X176.929 Y184.849
G1 F1200 X163.15 Y171.069 E40.60312
G0 F6000 X163.15 Y171.635
G1 F1200 X176.363 Y184.849 E41.22464
G0 F6000 X175.798 Y184.849
G1 F1200 X163.15 Y172.201 E41.81956
G0 F6000 X163.15 Y172.766
G1 F1200 X175.232 Y184.849 E42.38789
G0 F6000 X174.666 Y184.849
G1 F1200 X163.15 Y173.332 E42.92959
G0 F6000 X163.15 Y173.898
G1 F1200 X174.101 Y184.849 E43.44469
G0 F6000 X173.535 Y184.849
G1 F1200 X163.15 Y174.463 E43.93319
G0 F6000 X163.15 Y175.029
G1 F1200 X172.969 Y184.849 E44.39507
G0 F6000 X172.403 Y184.849
G1 F1200 X163.15 Y175.595 E44.83033
G0 F6000 X163.15 Y176.16
G1 F1200 X171.838 Y184.849 E45.23901
G0 F6000 X171.272 Y184.849
G1 F1200 X163.15 Y176.726 E45.62106
G0 F6000 X163.15 Y177.292
G1 F1200 X170.706 Y184.849 E45.9765
G0 F6000 X170.141 Y184.849
G1 F1200 X163.15 Y177.857 E46.30536
G0 F6000 X163.15 Y178.423
G1 F1200 X169.575 Y184.849 E46.60759
G0 F6000 X169.009 Y184.849
G1 F1200 X163.15 Y178.989 E46.88321
G0 F6000 X163.15 Y179.554
G1 F1200 X168.444 Y184.849 E47.13224
G0 F6000 X167.878 Y184.849
G1 F1200 X163.15 Y180.12 E47.35466
G0 F6000 X163.15 Y180.686
G1 F1200 X167.312 Y184.849 E47.55045
G0 F6000 X166.747 Y184.849
G1 F1200 X163.15 Y181.251 E47.71966
G0 F6000 X163.15 Y181.817
G1 F1200 X166.181 Y184.849 E47.86226
G0 F6000 X165.615 Y184.849
G1 F1200 X163.15 Y182.383 E47.97823
G0 F6000 X163.15 Y182.949
G1 F1200 X165.05 Y184.849 E48.0676
G0 F6000 X164.484 Y184.849
G1 F1200 X163.15 Y183.514 E48.13037
G0 F6000 X163.15 Y184.08
G1 F1200 X163.918 Y184.849 E48.16652
G0 F6000 X163.352 Y184.849
G1 F1200 X163.15 Y184.646 E48.17604
G0 F6000 X162.8 Y184.646
;MESH:NONMESH
G0 F300 X162.8 Y184.646 Z0.4
G0 F6000 X162.71 Y184.646
G0 X162.782 Y185.218
G0 X181.4 Y185.4
;TIME_ELAPSED:84.641051
;LAYER:1
M106 S85
;TYPE:WALL-INNER
;MESH:xyzCalibration_cube.stl
G1 F1800 X162.6 Y185.4 E48.80133
G1 X162.6 Y166.6 E49.42662
G1 X181.4 Y166.6 E50.05191
G1 X181.4 Y185.4 E50.6772
G0 F9000 X181.8 Y185.8
;TYPE:WALL-OUTER
G1 F1800 X162.2 Y185.8 E51.3291
G1 X162.2 Y166.2 E51.981
G1 X181.8 Y166.2 E52.6329
G1 X181.8 Y185.8 E53.2848
G0 F9000 X181.53 Y185.53
G0 X181.29 Y185.01
G0 X181.01 Y185.01
;TYPE:SKIN
G1 F1800 X162.99 Y185.01 E53.88414
G1 X162.99 Y166.99 E54.48349
G1 X181.01 Y166.99 E55.08284
G1 X181.01 Y185.01 E55.68219
G0 F9000 X180.583 Y184.849
G1 F1800 X180.849 Y184.583 E55.6947
G0 F9000 X180.849 Y184.017
G1 F1800 X180.017 Y184.849 E55.73383
G0 F9000 X179.451 Y184.849
G1 F1800 X180.849 Y183.451 E55.79959
G0 F9000 X180.849 Y182.886
G1 F1800 X178.885 Y184.849 E55.89195
G0 F9000 X178.32 Y184.849
G1 F1800 X180.849 Y182.32 E56.01091
G0 F9000 X180.849 Y181.754
G1 F1800 X177.754 Y184.849 E56.15648
G0 F9000 X177.188 Y184.849
G1 F1800 X180.849 Y181.189 E56.32866
G0 F9000 X180.849 Y180.623
G1 F1800 X176.623 Y184.849 E56.52744
G0 F9000 X176.057 Y184.849
G1 F1800 X180.849 Y180.057 E56.75284
G0 F9000 X180.849 Y179.491
G1 F1800 X175.491 Y184.849 E57.00487
G0 F9000 X174.926 Y184.849
G1 F1800 X180.849 Y178.926 E57.28347
G0 F9000 X180.849 Y178.36
G1 F1800 X174.36 Y184.849 E57.58869
G0 F9000 X173.794 Y184.849
G1 F1800 X180.849 Y177.794 E57.92053
G0 F9000 X180.849 Y177.229
G1 F1800 X173.229 Y184.849 E58.27896
G0 F9000 X172.663 Y184.849
G1 F1800 X180.849 Y176.663 E58.664
G0 F9000 X180.849 Y176.097
G1 F1800 X172.097 Y184.849 E59.07567
G0 F9000 X171.532 Y184.849
G1 F1800 X180.849 Y175.532 E59.51391
G0 F9000 X180.849 Y174.966
G1 F1800 X170.966 Y184.849 E59.97878
G0 F9000 X170.4 Y184.849
G1 F1800 X180.849 Y174.4 E60.47027
G0 F9000 X180.849 Y173.835
G1 F1800 X169.835 Y184.849 E60.98833
G0 F9000 X169.269 Y184.849
G1 F1800 X180.849 Y173.269 E61.53302
G0 F9000 X180.849 Y172.703
G1 F1800 X168.703 Y184.849 E62.10433
G0 F9000 X168.137 Y184.849
G1 F1800 X180.849 Y172.138 E62.70224
G0 F9000 X180.849 Y171.572
G1 F1800 X167.572 Y184.849 E63.32675
G0 F9000 X167.006 Y184.849
G1 F1800 X180.849 Y171.006 E63.97788
G0 F9000 X180.849 Y170.441
G1 F1800 X166.44 Y184.849 E64.65561
G0 F9000 X165.875 Y184.849
G1 F1800 X180.849 Y169.875 E65.35994
G0 F9000 X180.849 Y169.309
G1 F1800 X165.309 Y184.849 E66.0909
G0 F9000 X164.743 Y184.849
